lib/svgs/search-text.svg

<svg xmlns="http://www.w3.org/2000/svg" viewBox="0 0 20 20">
    <path fill="#000" fill-rule="evenodd" d="M12.2,14.5941 L2.6,14.5941 C2.269,14.5941 2,14.8631 2,15.1941 C2,15.5251 2.269,15.7931 2.6,15.7931 L12.2,15.7931 C12.532,15.7931 12.8,15.5251 12.8,15.1941 C12.8,14.8631 12.532,14.5941 12.2,14.5941 L12.2,14.5941 Z M2.6004,11.0247 L7.4004,11.0247 C7.7314,11.0247 8.0004,10.7557 8.0004,10.4247 C8.0004,10.0927 7.7314,9.8247 7.4004,9.8247 L2.6004,9.8247 C2.2684,9.8247 2.0004,10.0927 2.0004,10.4247 C2.0004,10.7557 2.2684,11.0247 2.6004,11.0247 L2.6004,11.0247 Z M2.6004,6.2 L17.4004,6.2 C17.7314,6.2 18.0004,5.931 18.0004,5.6 C18.0004,5.268 17.7314,5 17.4004,5 L2.6004,5 C2.2684,5 2.0004,5.268 2.0004,5.6 C2.0004,5.931 2.2684,6.2 2.6004,6.2 L2.6004,6.2 Z M15.8261,12.0761 C16.5961,10.9121 16.4691,9.3251 15.4451,8.3011 C14.3111,7.1671 12.3351,7.1681 11.2021,8.3011 C10.6361,8.8671 10.3231,9.6211 10.3231,10.4221 C10.3231,11.2231 10.6351,11.9771 11.2021,12.5441 C11.7871,13.1281 12.5551,13.4211 13.3231,13.4211 C13.9011,13.4211 14.4781,13.2551 14.9781,12.9251 L16.9761,14.9221 C17.0931,15.0391 17.2471,15.0981 17.4001,15.0981 C17.5541,15.0981 17.7071,15.0391 17.8241,14.9221 C18.0591,14.6881 18.0591,14.3081 17.8241,14.0741 L15.8261,12.0761 L15.8261,12.0761 Z M12.0511,11.6951 C11.7111,11.3551 11.5241,10.9031 11.5241,10.4221 C11.5241,9.9421 11.7111,9.4891 12.0511,9.1501 C12.3911,8.8091 12.8431,8.6221 13.3231,8.6221 C13.8041,8.6221 14.2571,8.8091 14.5961,9.1501 C15.2981,9.8511 15.2981,10.9931 14.5961,11.6951 C13.8941,12.3961 12.7521,12.3961 12.0511,11.6951 L12.0511,11.6951 Z"/>
</svg>

<svg xmlns="http://www.w3.org/2000/svg" viewBox="0 0 20 20">
    <path fill="#000" fill-rule="evenodd" d="M12.2 14.594H2.6a.6.6 0 0 0 0 1.2h9.6a.599.599 0 1 0 0-1.2m-9.6-3.57h4.8a.6.6 0 0 0 0-1.2H2.6a.6.6 0 1 0 0 1.2m0-4.824h14.8a.6.6 0 0 0 0-1.2H2.6a.6.6 0 1 0 0 1.2m13.226 5.876a3.005 3.005 0 0 0-.38-3.775 3.072 3.072 0 0 0-4.244 0 2.982 2.982 0 0 0-.879 2.121 2.982 2.982 0 0 0 3 3c.578 0 1.155-.167 1.655-.497l1.998 1.997a.6.6 0 1 0 .848-.848l-1.998-1.998m-3.775-.38a1.788 1.788 0 0 1 0-2.546 1.784 1.784 0 0 1 2.545 0 1.801 1.801 0 0 1-2.545 2.545"/>
</svg>
